packages/ui-solid/icons/guard_24.svg

<svg width="24" height="24" viewBox="0 0 24 24" fill="none" xmlns="http://www.w3.org/2000/svg">
<path fill-rule="evenodd" clip-rule="evenodd" d="M11.2724 0.762558C11.7547 0.679733 12.2475 0.679733 12.7298 0.762558C13.276 0.856354 13.7894 1.08902 14.5197 1.42004C14.5527 1.43498 14.5861 1.45011 14.6199 1.46544L18.9077 3.407C18.9414 3.42225 18.9747 3.43731 19.0076 3.4522C19.834 3.826 20.4246 4.09314 20.9514 4.59189C21.3653 4.98378 21.8016 5.63449 22.0071 6.16615C22.2683 6.84186 22.2872 7.37214 22.3134 8.10792C22.3141 8.12908 22.3149 8.1504 22.3157 8.17191C22.4175 11.0072 21.9985 14.4256 20.5622 17.3137C19.1086 20.2366 16.5984 22.6284 12.6012 23.243L12.5941 23.244C12.4675 23.2635 12.3697 23.2785 12.2118 23.2882C12.0985 23.2951 11.9036 23.2951 11.7904 23.2882C11.6325 23.2785 11.5347 23.2635 11.4081 23.244L11.401 23.243C7.40381 22.6284 4.89361 20.2366 3.43998 17.3137C2.00369 14.4256 1.58473 11.0072 1.68651 8.17191C1.68729 8.15041 1.68805 8.12909 1.6888 8.10794C1.71502 7.37215 1.73392 6.84187 1.99507 6.16615C2.20055 5.63449 2.63694 4.98378 3.05083 4.59189C3.57757 4.09314 4.16818 3.826 4.99458 3.4522C5.0275 3.43731 5.06079 3.42225 5.09446 3.407L9.3823 1.46544C9.41615 1.45011 9.44954 1.43497 9.48248 1.42004C10.2129 1.08902 10.7262 0.856353 11.2724 0.762558ZM12.4252 2.53659C12.1445 2.48839 11.8577 2.48839 11.577 2.53659C11.2869 2.58641 10.9947 2.71124 10.1248 3.10517L5.83695 5.04673C4.87527 5.48219 4.57164 5.63077 4.28841 5.89894C4.06872 6.10696 3.78311 6.53284 3.67404 6.81505C3.53017 7.18729 3.51421 7.43267 3.48536 8.23648C3.39035 10.8831 3.79099 13.9772 5.05167 16.5122C6.295 19.0122 8.35912 20.9541 11.6746 21.4639C11.7988 21.483 11.8276 21.4871 11.9002 21.4916C11.9403 21.494 12.0619 21.494 12.102 21.4916C12.1746 21.4871 12.2034 21.483 12.3276 21.4639C15.6431 20.9541 17.7072 19.0122 18.9505 16.5122C20.2112 13.9772 20.6119 10.8831 20.5168 8.23648C20.488 7.43267 20.472 7.18729 20.3282 6.81504C20.2191 6.53284 19.9335 6.10696 19.7138 5.89894C19.4306 5.63077 19.1269 5.48219 18.1653 5.04673L13.8774 3.10517C13.0075 2.71124 12.7153 2.58641 12.4252 2.53659Z" fill="#007AFF"/>
<path fill-rule="evenodd" clip-rule="evenodd" d="M10.9423 9.98401C10.8848 10.1586 10.7218 10.2766 10.538 10.2766H8.43354C8.0198 10.2766 7.84926 10.8071 8.1855 11.0482L9.87827 12.2619C10.0294 12.3703 10.0927 12.5643 10.0346 12.741L9.38569 14.7117C9.25689 15.1028 9.70335 15.4307 10.0381 15.1907L11.7526 13.9614C11.9009 13.8551 12.1004 13.8551 12.2487 13.9614L13.9633 15.1907C14.298 15.4307 14.7445 15.1028 14.6157 14.7117L13.9668 12.741C13.9086 12.5643 13.9719 12.3703 14.1231 12.2619L15.8159 11.0482C16.1521 10.8071 15.9815 10.2766 15.5678 10.2766H13.4634C13.2796 10.2766 13.1165 10.1586 13.0591 9.98401L12.405 7.99755C12.2766 7.60748 11.7248 7.60748 11.5963 7.99755L10.9423 9.98401ZM14.4578 8.47656H15.5678C17.731 8.47656 18.6227 11.2506 16.8647 12.5111L15.9921 13.1366L16.3254 14.1487C16.9988 16.1941 14.6645 17.9083 12.9145 16.6536L12.0007 15.9984L11.0869 16.6536C9.33685 17.9083 7.00254 16.1941 7.67598 14.1487L8.00921 13.1366L7.13667 12.5111C5.37864 11.2506 6.27032 8.47656 8.43354 8.47656H9.54357L9.88663 7.43462C10.5581 5.39513 13.4432 5.39512 14.1147 7.43462L14.4578 8.47656Z" fill="#007AFF"/>
</svg>

<svg xmlns="http://www.w3.org/2000/svg" width="24" height="24" fill="none"><path fill="currentColor" fill-rule="evenodd" d="M11.272.763a4.3 4.3 0 0 1 1.458 0c.546.093 1.06.326 1.79.657l.1.045 4.288 1.942.1.045c.826.374 1.417.641 1.943 1.14a4.8 4.8 0 0 1 1.056 1.574c.261.676.28 1.206.306 1.942l.003.064c.102 2.835-.317 6.254-1.754 9.142-1.453 2.923-3.964 5.314-7.96 5.929l-.008.001a3.7 3.7 0 0 1-.804.044 4 4 0 0 1-.382-.044l-.007-.001c-3.997-.615-6.507-3.006-7.961-5.93-1.436-2.887-1.855-6.306-1.753-9.141l.002-.064c.026-.736.045-1.266.306-1.942a4.8 4.8 0 0 1 1.056-1.574c.527-.499 1.117-.766 1.944-1.14l.1-.045 4.287-1.942.1-.045c.73-.331 1.244-.564 1.79-.657m1.153 1.774a2.5 2.5 0 0 0-.848 0c-.29.05-.582.174-1.452.568L5.837 5.047c-.962.435-1.265.584-1.549.852a3.1 3.1 0 0 0-.614.916c-.144.372-.16.618-.189 1.421-.095 2.647.306 5.741 1.567 8.276 1.243 2.5 3.307 4.442 6.623 4.952.124.019.153.023.225.028.04.002.162.002.202 0 .073-.005.101-.009.226-.028 3.315-.51 5.38-2.452 6.623-4.952 1.26-2.535 1.66-5.629 1.566-8.276-.029-.803-.045-1.049-.189-1.421a3.1 3.1 0 0 0-.614-.916c-.283-.268-.587-.417-1.549-.852l-4.288-1.942c-.87-.394-1.162-.519-1.452-.568" clip-rule="evenodd"/><path fill="currentColor" fill-rule="evenodd" d="M10.942 9.984a.43.43 0 0 1-.404.293H8.434a.426.426 0 0 0-.248.771l1.692 1.214a.43.43 0 0 1 .157.479l-.65 1.97a.426.426 0 0 0 .653.48l1.715-1.23a.43.43 0 0 1 .496 0l1.714 1.23a.426.426 0 0 0 .653-.48l-.65-1.97a.43.43 0 0 1 .157-.48l1.693-1.213a.426.426 0 0 0-.248-.771h-2.105a.43.43 0 0 1-.404-.293l-.654-1.986a.426.426 0 0 0-.809 0zm3.516-1.507h1.11c2.163 0 3.055 2.774 1.297 4.034l-.873.626.333 1.012c.674 2.045-1.66 3.76-3.41 2.505L12 15.998l-.914.656c-1.75 1.254-4.084-.46-3.411-2.505l.333-1.012-.872-.626c-1.758-1.26-.867-4.034 1.297-4.034h1.11l.343-1.042c.671-2.04 3.556-2.04 4.228 0z" clip-rule="evenodd"/></svg>
